X: 7586
T: Codlaigi
R: waltz
M: 3/4
K: Aminor
AG|E2 AB Bc|A2 Ac BA|GB Bd e=f|e2 e2 de|
=fe de (3=fed|ec A2 AB|c2 cd Bc|1 A4 AG:|2 A4 de||
|:=fe de (3=fed|ec A2 de|=fe de =fg|e2 e2 de|
=fe de (3=fed|ec A2 AB|c2 cd Bc|1 A4 de:|2 A4 AG||

